fs/data_bar_vertical_20_regular.svg

<svg viewBox="0 0 20 20" fill="none" xmlns="http://www.w3.org/2000/svg" height="1em" width="1em">
  <path d="M5 3C3.89543 3 3 3.89543 3 5V15C3 16.1046 3.89543 17 5 17C6.10457 17 7 16.1046 7 15V5C7 3.89543 6.10457 3 5 3ZM4 5C4 4.44772 4.44772 4 5 4C5.55228 4 6 4.44772 6 5V15C6 15.5523 5.55228 16 5 16C4.44772 16 4 15.5523 4 15V5ZM8 8C8 6.89543 8.89543 6 10 6C11.1046 6 12 6.89543 12 8V15C12 16.1046 11.1046 17 10 17C8.89543 17 8 16.1046 8 15V8ZM10 7C9.44772 7 9 7.44772 9 8V15C9 15.5523 9.44772 16 10 16C10.5523 16 11 15.5523 11 15V8C11 7.44772 10.5523 7 10 7ZM13 11C13 9.89543 13.8954 9 15 9C16.1046 9 17 9.89543 17 11V15C17 16.1046 16.1046 17 15 17C13.8954 17 13 16.1046 13 15V11ZM15 10C14.4477 10 14 10.4477 14 11V15C14 15.5523 14.4477 16 15 16C15.5523 16 16 15.5523 16 15V11C16 10.4477 15.5523 10 15 10Z" fill="#212121"/>
</svg>

<svg viewBox="0 0 20 20" fill="none" xmlns="http://www.w3.org/2000/svg" height="1em" width="1em">
  <path d="M5 3a2 2 0 0 0-2 2v10a2 2 0 1 0 4 0V5a2 2 0 0 0-2-2ZM4 5a1 1 0 0 1 2 0v10a1 1 0 1 1-2 0V5Zm4 3a2 2 0 1 1 4 0v7a2 2 0 1 1-4 0V8Zm2-1a1 1 0 0 0-1 1v7a1 1 0 1 0 2 0V8a1 1 0 0 0-1-1Zm3 4a2 2 0 1 1 4 0v4a2 2 0 1 1-4 0v-4Zm2-1a1 1 0 0 0-1 1v4a1 1 0 1 0 2 0v-4a1 1 0 0 0-1-1Z" fill="#212121"/>
</svg>
